!!!COM:	Josquin des Pres
**kern	**kern
*part2	*part1
*staff2	*staff1
*clefF4	*clefGv2
*k[]	*k[]
*M2/1	*M2/1
=1-	=1-
1D	1r
1F	1A
=2	=2
1E	1c
[1G	1B
=3	=3
2G]	1.d
4F	.
4E	.
2D	.
2E	4c
.	4B
=4	=4
2F	2A
2G	2B
2A	2c
2D	2d
=5	=5
1A	2e
.	2A
2r	1e
2AA	.
=6	=6
1C	2r
.	2E
1BB	1G
=7	=7
1.D	1F
.	[1A
4C	.
4BB	.
=8	=8
2AA	2A]
2BB	4G
.	4F
2C	2E
2D	2F
=9	=9
2E	2G
2AA	2A
1E	2B
.	2E
=10	=10
2r	1B
2E	.
1G	2r
.	2B
=11	=11
1F	1d
[1A	1c
=12	=12
2A]	1.e
4G	.
4F	.
2E	.
2F	4d
.	4c
=13	=13
2G	2B
2A	2c
2D	2d
2A	2e
=14	=14
2r	2A
1A	2e
.	2r
2G	[2e
=15	=15
2A	2e]
2F	2d
2E	2e
2A	2c
=16	=16
2G	2B
2E	2e
2r	2d
[2G	2B
=17	=17
2G]	2r
2F	1d
2G	.
2E	2c
=18	=18
2D	2d
2G	2B
2F	2A
2D	2d
=19	=19
2r	2c
2D	2A
2E	2r
2F	2A
=20	=20
2G	2B
2E	2c
2F	2d
2G	2B
=21	=21
2A	2c
2D	2d
2r	2e
[2A	2A
=22	=22
2A]	2r
2G	1e
2A	.
2B	2d
=23	=23
2G	2e
2A	2f
2r	2d
[2A	2e
=24	=24
2A]	2r
2G	1e
2A	.
2B	2d
=25	=25
2G	2e
2A	2f
2r	2d
[2AA	2e
=26	=26
4AA]	2r
4GG	.
4AA	2.E
4BB	.
4C	.
4BB	4D
4C	4E
4AA	4F
=27	=27
4BB	4G
4AA	4F
4BB	4G
4C	4E
2D	4F
.	4E
2BB	4F
.	4G
=28	=28
2AA	2A
2A	2F
2G	2E
2A	2e
=29	=29
2D	2d
2A	2e
2r	2A
[2AA	2e
=30	=30
4AA]	2r
4GG	.
4AA	2.E
4BB	.
4C	.
4BB	4D
4C	4E
4AA	4F
=31	=31
4BB	4G
4AA	4F
4BB	4G
4C	4E
2D	4F
.	4E
2BB	4F
.	4G
=32	=32
2AA	2A
2.D	2F
.	2E
4C	.
4D	[2A
4E	.
=33	=33
4F	4A]
4E	4G
4F	4A
4D	4B
4E	4c
4D	4B
4E	4c
4F	4A
=34	=34
2G	4B
.	4A
2E	4B
.	4c
1D	2d
.	2B
=35	=35
2r	1A
2.D	.
.	2r
4C	.
4D	[2A
4E	.
=36	=36
4F	4A]
4E	4G
4F	4A
4D	4B
4E	4c
4D	4B
4E	4c
4F	4A
=37	=37
4G	4B
4F	4A
4G	4B
4E	4c
4F	4d
4E	4c
4F	4d
4G	4B
=38	=38
2A	4c
.	4B
2F	4c
.	4d
1E	2e
.	2c
=39	=39
0D	1B
.	1A
==	==
*-	*-
